!!!OTL: Kindelwiegenlied
!!!ARE: Europa, Mitteleuropa, Deutschland
!!!SCT: A0526
!!!YEM: Copyright 1995, estate of Helmut Schaffrath.
**kern
*ICvox
*Ivox
*M2/2
*k[b-]
*F:
{2a
2cc
=1
2dd
2cc
=2
4cc
4b-
2a}
=3
{2a
2cc
=4
2dd
2cc
=5
4cc
4b-
2a}
=6
{2g
2a
=7
2b-
2a
=8
4g
4g
2f
=9
2r}
{2f
=10
2g
2a
=11
2a
2a
=12
2f
2g
=13
1a
=14
2r}
{4f
4g
=15
2a
2a
=16
1a
=17
4g
4a
4b-
4a
=18
4g
4g
2f}
==
!!!AGN: Romanze, Ballade, Lied, religioeses Lied
!! Andernacher Gsgb. 1608 No. 26.
!!!ONB: ESAC (Essen Associative Code) Database: ALTDEU
!!!AMT: simple duple
!!!AIN: vox
!!!EED: Helmut Schaffrath
!!!EEV: 1.0
*-
